static/logo/wegame.svg

<svg viewBox="0 0 49 49" fill="none" xmlns="http://www.w3.org/2000/svg">
    <path fill-rule="evenodd" clip-rule="evenodd"
        d="M38.41 17.5348C37.9844 16.9323 37.3798 16.4793 36.6822 16.24C35.9845 16.0006 35.2291 15.9871 34.5234 16.2015C32.635 16.5998 31.6734 20.5031 30.1901 22.0347C28.7068 23.5664 27.3751 22.4664 25.6901 20.9047C24.0052 19.3431 23.3352 18.8181 22.2918 18.6681C21.2485 18.5181 20.4735 19.1014 19.0319 20.7714C17.5902 22.4414 17.5902 23.0314 16.0803 24.1614C14.5703 25.2913 12.682 22.4264 11.4136 22.7264C10.1453 23.0264 10.2787 24.7097 11.4136 26.123C11.9238 26.9164 12.6105 27.5812 13.42 28.0654C14.2295 28.5497 15.1399 28.8403 16.0803 28.9146C18.4452 29.0813 19.7869 26.8697 21.1952 25.8563C22.6035 24.843 23.8835 25.8897 26.2751 28.6146C26.5931 29.0679 27.0023 29.4497 27.4766 29.7355C27.9509 30.0212 28.4797 30.2046 29.029 30.2738C29.5784 30.343 30.1361 30.2965 30.6664 30.1374C31.1968 29.9782 31.6879 29.7099 32.1084 29.3496C32.9793 28.6436 33.7093 27.7796 34.26 26.803C34.3271 28.7554 34.0047 30.7016 33.3115 32.528C32.6183 34.3544 31.5683 36.0244 30.2227 37.4406C28.8771 38.8568 27.2629 39.9908 25.4742 40.7764C23.6856 41.562 21.7585 41.9834 19.8052 42.0161C17.1745 41.8993 14.6355 41.0156 12.5007 39.474C10.3659 37.9323 8.72858 35.8 7.79036 33.3396C6.76048 30.7383 6.26078 27.9575 6.32059 25.1604C6.38041 22.3633 6.99854 19.6063 8.13869 17.0515C9.76454 13.4217 12.1752 10.1976 15.1969 7.61157C16.5841 6.66642 18.2185 6.14988 19.8968 6.12618C21.5752 6.10247 23.2235 6.57265 24.6368 7.47824C26.5251 8.81156 27.1368 9.76321 28.5834 10.9015C29.148 11.3196 29.8403 11.5282 30.5418 11.4917C31.2433 11.4552 31.9103 11.1759 32.4284 10.7015C33.0201 10.2737 33.4248 9.63486 33.5589 8.91706C33.6929 8.19926 33.5459 7.45742 33.1484 6.84491C31.2951 4.88661 27.4718 0 20.3052 0C14.6753 0 10.972 3.09163 7.33036 6.84825C4.23111 10.4388 2.02222 14.7097 0.883009 19.314C-0.256202 23.9183 -0.293624 28.7264 0.773779 33.3479C2.78209 42.2745 10.5187 48.3477 20.3735 48.3477C24.7017 48.353 28.9083 46.9158 32.3286 44.2634C35.7488 41.611 38.1877 37.8945 39.26 33.7012C41.0433 26.2013 39.3366 18.6614 38.41 17.5348Z"
        fill="url(#paint0_linear_2_54)" />
    <defs>
        <linearGradient id="paint0_linear_2_54" x1="1.16115" y1="10.7815" x2="44.0294" y2="33.8157"
            gradientUnits="userSpaceOnUse">
            <stop stop-color="#FFE76D" />
            <stop offset="0.347" stop-color="#FFC757" />
            <stop offset="1" stop-color="#FF5454" />
        </linearGradient>
    </defs>
</svg>

<?xml version="1.0" encoding="UTF-8"?>
<svg fill="none" viewBox="0 0 49 49" xmlns="http://www.w3.org/2000/svg"><path d="m38.41 17.535c-0.4256-0.6025-1.0302-1.0555-1.7278-1.2948-0.6977-0.2394-1.4531-0.2529-2.1588-0.0385-1.8884 0.3983-2.85 4.3016-4.3333 5.8332-1.4833 1.5317-2.815 0.4317-4.5-1.13-1.6849-1.5616-2.3549-2.0866-3.3983-2.2366-1.0433-0.15-1.8183 0.4333-3.2599 2.1033-1.4417 1.67-1.4417 2.26-2.9516 3.39-1.51 1.1299-3.3983-1.735-4.6667-1.435-1.2683 0.3-1.1349 1.9833 0 3.3966 0.5102 0.7934 1.1969 1.4582 2.0064 1.9424 0.8095 0.4843 1.7199 0.7749 2.6603 0.8492 2.3649 0.1667 3.7066-2.0449 5.1149-3.0583 1.4083-1.0133 2.6883 0.0334 5.0799 2.7583 0.318 0.4533 0.7272 0.8351 1.2015 1.1209 0.4743 0.2857 1.0031 0.4691 1.5524 0.5383 0.5494 0.0692 1.1071 0.0227 1.6374-0.1364 0.5304-0.1592 1.0215-0.4275 1.442-0.7878 0.8709-0.706 1.6009-1.57 2.1516-2.5466 0.0671 1.9524-0.2553 3.8986-0.9485 5.725s-1.7432 3.4964-3.0888 4.9126-2.9598 2.5502-4.7485 3.3358c-1.7886 0.7856-3.7157 1.207-5.669 1.2397-2.6307-0.1168-5.1697-1.0005-7.3045-2.5421-2.1348-1.5417-3.7721-3.674-4.7103-6.1344-1.0299-2.6013-1.5296-5.3821-1.4698-8.1792 0.05982-2.7971 0.67795-5.5541 1.8181-8.1089 1.6258-3.6298 4.0365-6.8539 7.0582-9.4399 1.3872-0.94515 3.0216-1.4617 4.6999-1.4854 1.6784-0.02371 3.3267 0.44647 4.74 1.3521 1.8883 1.3333 2.5 2.285 3.9466 3.4233 0.5646 0.4181 1.2569 0.6267 1.9584 0.5902s1.3685-0.3158 1.8866-0.7902c0.5917-0.4278 0.9964-1.0666 1.1305-1.7844 0.134-0.7178-0.013-1.4596-0.4105-2.0722-1.8533-1.9583-5.6766-6.8449-12.843-6.8449-5.6299 0-9.3332 3.0916-12.975 6.8482-3.0992 3.5906-5.3081 7.8614-6.4474 12.466s-1.1766 9.4124-0.10923 14.034c2.0083 8.9266 9.7449 15 19.6 15 4.3282 0.0053 8.5348-1.4319 11.955-4.0843 3.4202-2.6524 5.8591-6.3689 6.9314-10.562 1.7833-7.4999 0.0766-15.04-0.85-16.166z" clip-rule="evenodd" fill="url(#paint0_linear_2_54)" fill-rule="evenodd"/><defs><linearGradient id="paint0_linear_2_54" x1="1.1612" x2="44.029" y1="10.782" y2="33.816" gradientUnits="userSpaceOnUse"><stop stop-color="#FFE76D" offset="0"/><stop stop-color="#FFC757" offset=".347"/><stop stop-color="#FF5454" offset="1"/></linearGradient></defs></svg>
